X:0105
T:Pady Whack
N:Aird has no repeat for the second part
M:6/8
L:1/8
Q:3/8=120
I: :: ||
Z:Jack Campin * www.campin.me.uk * 2009
K:G
 D   |GBd  gfg    |edc B2A|GBd gea|fdd d2
=f   |ece  efg    |dBG A2G|GAB cAd|BGG G2:|
 B/c/|dBd  ece    |dBG A2G|Bcd ega|fdd d2
=f   |ece (e/f/g)e|dBG A2G|GAB cAd|BGG G2|]

